X: 35
T: the Frisky   [A]
O: 1774
R: jig
M: 6/8
L: 1/8
Z: 2011 John Chambers <jc:trillian.mit.edu>
B: Charles & Samuel Thompson eds "Twenty Four Country Dances", London 1774, p.18 #1
K: A
% - - - - - - - - - - - - - - - - - - - - - - - - -
|: "A"c>de e>dc | "E7"Bcd "A"c2A "I"| "A"c>de e>dc | "E7"B>AG "A"A3 :|\
|: "A"cBc cBc | "D"ded "A"c2A | "A"cBc cBc | "E7"B>AG "A"A3 :|
|: "A"a>ba "E"g>ag | "D"f>gf f>ed | "A"c>de "D"f>ed | "E7"c>dB "A"A3 :|\
|: "A"E[AC]E "D"F[AD]F | "E7"Bcd "A"cBA | "A"E[AC]E "D"F[AD]F | "E7"dcB "A"A3 :|
% - - - - - - - - Dance description - - - - - - - -
% %begintext align
% % Turn Right hands & cast off 1 Cu. .|. .|. turn Left & cast
% % off below the 3c Cu. :|. :|: hands round 6 .|:. :|:. lead up to
% % the top foot it & cast off .|:: :|::
% %endtext
